X:235
T:Reel du Veterinaire
C:Joseph Allard
M:2/4
L:1/16
Z:abc by Bruce Osborne - bosborne@kos.net
K:F
ce|fefa gfga|fcfa gece|fefa gfga|bagf ecce|!
fefa gfga|fcfa gece|fdcB AFAc|dfeg f2:|!
|:cB|AFFc AFcF|dFcF BGGB|AFFc AFAc|dfeg fdcB|!
AFFc AFcF|dFcF BGGB|AFFc AFAc|dfeg f2:|!
